dist/images/svg/bg-vector-tablet.svg

<svg width="768" height="756" viewBox="0 0 768 756" fill="none" xmlns="http://www.w3.org/2000/svg">
<path d="M227.214 733.239C170.466 737.651 135.953 687.489 87.4139 690.217C38.8744 692.945 29.1503 691.645 -49.1399 704.108C-127.43 716.571 -282.427 658.636 -282.427 658.636C-282.427 658.636 -664.277 36.0276 -405.055 34.3915C-145.833 32.7555 712.262 224.967 938.734 25.9102C1165.21 -173.147 998.62 852.831 884.01 747.491C769.401 642.151 721.427 667.797 620.58 709.849C519.733 751.902 452.289 679.952 390.601 683.418C328.913 686.885 283.962 728.827 227.214 733.239Z" fill="#56295A"/>
</svg>

<svg width="768" height="756" fill="none" xmlns="http://www.w3.org/2000/svg"><path d="M227.214 733.239c-56.748 4.412-91.261-45.75-139.8-43.022-48.54 2.728-58.264 1.428-136.554 13.891-78.29 12.463-233.287-45.472-233.287-45.472S-664.277 36.028-405.055 34.391c259.222-1.636 1117.317 190.576 1343.789-8.48 226.476-199.058 59.886 826.92-54.724 721.58-114.609-105.34-162.583-79.694-263.43-37.642-100.847 42.053-168.291-29.897-229.979-26.431-61.688 3.467-106.639 45.409-163.387 49.821Z" fill="#56295A"/></svg>
